Modules/BetterCms.Module.Root/Scss/base_64/icons/overlay-widget.svg

<svg xmlns="http://www.w3.org/2000/svg" width="16" height="16" viewBox="0 0 16 16">
 <g fill="#fff" fill-rule="evenodd">
  <path d="m14 16h-12c-1.105 0-2-.895-2-2v-12c0-1.105.895-2 2-2h12c1.105 0 2 .895 2 2v12c0 1.105-.895 2-2 2m0-11c0-1.105-.895-2-2-2h-7c-1.105 0-2 .895-2 2v7c0 1.105.895 2 2 2h7c1.105 0 2-.895 2-2v-7"/>
  <path d="m11 13h-5c-1.105 0-2-.895-2-2v-5c0-1.105.895-2 2-2h5c1.105 0 2 .895 2 2v5c0 1.105-.895 2-2 2m1-5c0-1.105-.895-2-2-2h-2c-1.105 0-2 .895-2 2v2c0 1.105.895 2 2 2h2c1.105 0 2-.895 2-2v-2"/>
  <path d="m9 7c1.105 0 2 .895 2 2 0 1.105-.895 2-2 2-1.105 0-2-.895-2-2 0-1.105.895-2 2-2"/>
 </g>
</svg>

<svg xmlns="http://www.w3.org/2000/svg" preserveAspectRatio="xMidYMid" width="16" height="16" viewBox="0 0 16 16">
    <path fill="#ffffff" fill-rule="evenodd" d="M14.000,16.000 L2.000,16.000 C0.895,16.000 0.000,15.105 0.000,14.000 L0.000,2.000 C0.000,0.895 0.895,-0.000 2.000,-0.000 L14.000,-0.000 C15.105,-0.000 16.000,0.895 16.000,2.000 L16.000,14.000 C16.000,15.105 15.105,16.000 14.000,16.000 ZM14.000,5.000 C14.000,3.895 13.105,3.000 12.000,3.000 L5.000,3.000 C3.895,3.000 3.000,3.895 3.000,5.000 L3.000,12.000 C3.000,13.105 3.895,14.000 5.000,14.000 L12.000,14.000 C13.105,14.000 14.000,13.105 14.000,12.000 L14.000,5.000 Z"/>
    <path fill="#ffffff" fill-rule="evenodd" d="M11.000,13.000 L6.000,13.000 C4.895,13.000 4.000,12.105 4.000,11.000 L4.000,6.000 C4.000,4.895 4.895,4.000 6.000,4.000 L11.000,4.000 C12.105,4.000 13.000,4.895 13.000,6.000 L13.000,11.000 C13.000,12.105 12.105,13.000 11.000,13.000 ZM12.000,8.000 C12.000,6.895 11.105,6.000 10.000,6.000 L8.000,6.000 C6.895,6.000 6.000,6.895 6.000,8.000 L6.000,10.000 C6.000,11.105 6.895,12.000 8.000,12.000 L10.000,12.000 C11.105,12.000 12.000,11.105 12.000,10.000 L12.000,8.000 Z"/>
    <path fill="#ffffff" fill-rule="evenodd" d="M9.000,7.000 C10.105,7.000 11.000,7.895 11.000,9.000 C11.000,10.105 10.105,11.000 9.000,11.000 C7.895,11.000 7.000,10.105 7.000,9.000 C7.000,7.895 7.895,7.000 9.000,7.000 Z"/>
</svg>
